src/assets/find-ad.svg

<svg width="97" height="97" viewBox="0 0 97 97" fill="none" xmlns="http://www.w3.org/2000/svg">
<g clip-path="url(#clip0_1836_14474)">
<path d="M60.23 22.2C60.23 18.8863 57.5437 16.2 54.23 16.2H6.5C3.18629 16.2 0.5 18.8863 0.5 22.2V90.5C0.5 93.8137 3.18629 96.5 6.5 96.5H54.23C57.5437 96.5 60.23 93.8137 60.23 90.5V22.2Z" fill="#9498A2"/>
<path d="M59.3 0.5H24.62C21.3063 0.5 18.62 3.18629 18.62 6.5V74.73C18.62 78.0437 21.3063 80.73 24.62 80.73H72.38C75.6937 80.73 78.38 78.0437 78.38 74.73V19.58L59.3 0.5Z" fill="#CED0D6"/>
<path d="M59.3 19.58H78.38L59.3 0.5V19.58Z" fill="#5C616D"/>
<path d="M66.91 48.52H30.09V52.9H66.91V48.52Z" fill="#F6F7F8"/>
<path d="M51.91 39.45H30.09V43.83H51.91V39.45Z" fill="#F6F7F8"/>
<path d="M66.91 57.59H30.09V61.97H66.91V57.59Z" fill="#F6F7F8"/>
<path d="M66.91 66.66H30.09V71.04H66.91V66.66Z" fill="#F6F7F8"/>
<path d="M37.5298 19.18C36.9298 19.18 36.5998 18.7 36.5998 17.81H36.6098C36.6098 16.89 36.9698 16.46 37.5298 16.46C38.0898 16.46 38.4698 16.87 38.4698 17.81C38.4698 18.75 38.1298 19.18 37.5298 19.18Z" fill="#F6F7F8"/>
<path d="M44.4398 23.33C43.8398 23.33 43.5098 22.85 43.5098 21.96H43.5198C43.5198 21.05 43.8798 20.61 44.4398 20.61C44.9998 20.61 45.3798 21.02 45.3798 21.96C45.3798 22.9 45.0398 23.33 44.4398 23.33Z" fill="#F6F7F8"/>
<path fill-rule="evenodd" clip-rule="evenodd" d="M40.5698 8.53003H41.4598C47.2478 8.53003 51.9398 13.2221 51.9398 19.01V19.9C51.9398 25.688 47.2478 30.38 41.4598 30.38H40.5698C34.7819 30.38 30.0898 25.688 30.0898 19.9V19.01C30.0898 13.2221 34.7819 8.53003 40.5698 8.53003ZM37.5098 20.42C39.0498 20.42 39.9398 19.35 39.9398 17.81L39.9498 17.82C39.9498 16.12 38.9498 15.24 37.5298 15.24C35.9498 15.24 35.0898 16.37 35.0898 17.82C35.0898 19.53 36.0498 20.42 37.5098 20.42ZM43.0198 15.38L37.4898 24.39H38.9198L44.4598 15.38H43.0198ZM44.4198 24.57C45.9598 24.57 46.8498 23.5 46.8498 21.96L46.8598 21.97C46.8598 20.27 45.8598 19.39 44.4398 19.39C42.8598 19.39 41.9998 20.52 41.9998 21.97C41.9998 23.67 42.9598 24.57 44.4198 24.57Z" fill="#F6F7F8"/>
<path d="M76.5 69.77C87.5457 69.77 96.5 60.8157 96.5 49.77C96.5 38.7243 87.5457 29.77 76.5 29.77C65.4543 29.77 56.5 38.7243 56.5 49.77C56.5 60.8157 65.4543 69.77 76.5 69.77Z" fill="#FF444F"/>
<path fill-rule="evenodd" clip-rule="evenodd" d="M75.009 39.304C69.8617 39.304 65.689 43.4767 65.689 48.624C65.689 53.7712 69.8617 57.944 75.009 57.944C77.1457 57.944 79.1144 57.2249 80.6865 56.0156L84.9069 60.236L87.311 57.8318L82.9631 53.4839C83.8295 52.0689 84.329 50.4047 84.329 48.624C84.329 43.4767 80.1563 39.304 75.009 39.304ZM69.089 48.624C69.089 45.3544 71.7395 42.704 75.009 42.704C78.2785 42.704 80.929 45.3544 80.929 48.624C80.929 51.8935 78.2785 54.544 75.009 54.544C71.7395 54.544 69.089 51.8935 69.089 48.624Z" fill="white"/>
</g>
<defs>
<clipPath id="clip0_1836_14474">
<rect width="96" height="96" fill="white" transform="translate(0.5 0.5)"/>
</clipPath>
</defs>
</svg>

<svg xmlns="http://www.w3.org/2000/svg" width="97" height="97" fill="none"><g clip-path="url(#a)"><path fill="#9498A2" d="M60.23 22.2a6 6 0 0 0-6-6H6.5a6 6 0 0 0-6 6v68.3a6 6 0 0 0 6 6h47.73a6 6 0 0 0 6-6z"/><path fill="#CED0D6" d="M59.3.5H24.62a6 6 0 0 0-6 6v68.23a6 6 0 0 0 6 6h47.76a6 6 0 0 0 6-6V19.58z"/><path fill="#5C616D" d="M59.3 19.58h19.08L59.3.5z"/><path fill="#F6F7F8" d="M66.91 48.52H30.09v4.38h36.82zM51.91 39.45H30.09v4.38h21.82zM66.91 57.59H30.09v4.38h36.82zM66.91 66.66H30.09v4.38h36.82zM37.53 19.18c-.6 0-.93-.48-.93-1.37h.01c0-.92.36-1.35.92-1.35s.94.41.94 1.35-.34 1.37-.94 1.37M44.44 23.33c-.6 0-.93-.48-.93-1.37h.01c0-.91.36-1.35.92-1.35s.94.41.94 1.35-.34 1.37-.94 1.37"/><path fill="#F6F7F8" fill-rule="evenodd" d="M40.57 8.53h.89c5.788 0 10.48 4.692 10.48 10.48v.89c0 5.788-4.692 10.48-10.48 10.48h-.89c-5.788 0-10.48-4.692-10.48-10.48v-.89c0-5.788 4.692-10.48 10.48-10.48m-3.06 11.89c1.54 0 2.43-1.07 2.43-2.61l.01.01c0-1.7-1-2.58-2.42-2.58-1.58 0-2.44 1.13-2.44 2.58 0 1.71.96 2.6 2.42 2.6m5.51-5.04-5.53 9.01h1.43l5.54-9.01zm1.4 9.19c1.54 0 2.43-1.07 2.43-2.61l.01.01c0-1.7-1-2.58-2.42-2.58-1.58 0-2.44 1.13-2.44 2.58 0 1.7.96 2.6 2.42 2.6" clip-rule="evenodd"/><path fill="#FF444F" d="M76.5 69.77c11.046 0 20-8.954 20-20s-8.954-20-20-20-20 8.954-20 20 8.954 20 20 20"/><path fill="#fff" fill-rule="evenodd" d="M75.009 39.304a9.32 9.32 0 1 0 0 18.64 9.28 9.28 0 0 0 5.677-1.928l4.22 4.22 2.405-2.404-4.348-4.348a9.32 9.32 0 0 0-7.954-14.18m-5.92 9.32a5.92 5.92 0 1 1 11.84 0 5.92 5.92 0 0 1-11.84 0" clip-rule="evenodd"/></g><defs><clipPath id="a"><path fill="#fff" d="M.5.5h96v96H.5z"/></clipPath></defs></svg>
